common/resources/fonts/svg/indeterminate-state-icon.svg

<svg viewBox="0 0 24 24" version="1.1" xmlns="http://www.w3.org/2000/svg" xmlns:xlink="http://www.w3.org/1999/xlink">
    <defs>
        <path d="M8,4 L16,4 C18.209139,4 20,5.790861 20,8 L20,16 C20,18.209139 18.209139,20 16,20 L8,20 C5.790861,20 4,18.209139 4,16 L4,8 L4,8 C4,5.790861 5.790861,4 8,4 L8,4 Z M7,11 L7,13 L17,13 L17,11 L7,11 Z" id="path-1"></path>
    </defs>
    <g id="Component-Tests" stroke="none" stroke-width="1" fill="none" fill-rule="evenodd">
        <g id="Artboard">
            <g id="Icon/Indeterminate">
                <rect id="Bounding-Box" x="0" y="0" width="24" height="24"></rect>
                <mask id="mask-2" fill="white">
                    <use xlink:href="#path-1"></use>
                </mask>
                <use id="Mask" fill="#2F2F2F" fill-rule="evenodd" xlink:href="#path-1"></use>
                <g id="Mixin/Fill/Primary-Brand" mask="url(#mask-2)" fill-rule="evenodd" fill="currentColor">
                    <rect id="Box" x="0" y="0" width="24" height="24"></rect>
                </g>
            </g>
        </g>
    </g>
</svg>

<svg viewBox="0 0 24 24" xmlns:xlink="http://www.w3.org/1999/xlink">
    <defs>
        <path d="M8 4h8a4 4 0 0 1 4 4v8a4 4 0 0 1-4 4H8a4 4 0 0 1-4-4V8a4 4 0 0 1 4-4zm-1 7v2h10v-2H7z" id="indeterminate-state-icon"/>
    </defs>
    <g fill="none" fill-rule="evenodd">
        <path d="M0 0h24v24H0z"/>
        <mask id="indeterminate-state-icon-mask" fill="#fff">
            <use xlink:href="#indeterminate-state-icon"/>
        </mask>
        <use fill="#2F2F2F" xlink:href="#indeterminate-state-icon"/>
        <g mask="url(#indeterminate-state-icon-mask)" fill="currentColor">
            <path d="M0 0h24v24H0z"/>
        </g>
    </g>
</svg>
